images/16758251.svg

<?xml version="1.0" encoding="UTF-8"?>
<svg xmlns="http://www.w3.org/2000/svg" xmlns:xlink="http://www.w3.org/1999/xlink" width="300pt" height="300pt" viewBox="0 0 300 300" version="1.1">
<defs>
<g>
<symbol overflow="visible" id="glyph0-0">
<path style="stroke:none;" d="M 0.546875 1.9375 L 0.546875 -7.75 L 6.046875 -7.75 L 6.046875 1.9375 Z M 1.171875 1.328125 L 5.4375 1.328125 L 5.4375 -7.140625 L 1.171875 -7.140625 Z M 1.171875 1.328125 "/>
</symbol>
<symbol overflow="visible" id="glyph0-1">
<path style="stroke:none;" d="M 4.328125 -7.28125 C 3.546875 -7.28125 2.921875 -6.984375 2.453125 -6.390625 C 1.992188 -5.804688 1.765625 -5.007812 1.765625 -4 C 1.765625 -2.988281 1.992188 -2.1875 2.453125 -1.59375 C 2.921875 -1.007812 3.546875 -0.71875 4.328125 -0.71875 C 5.117188 -0.71875 5.742188 -1.007812 6.203125 -1.59375 C 6.660156 -2.1875 6.890625 -2.988281 6.890625 -4 C 6.890625 -5.007812 6.660156 -5.804688 6.203125 -6.390625 C 5.742188 -6.984375 5.117188 -7.28125 4.328125 -7.28125 Z M 4.328125 -8.171875 C 5.453125 -8.171875 6.351562 -7.789062 7.03125 -7.03125 C 7.707031 -6.28125 8.046875 -5.269531 8.046875 -4 C 8.046875 -2.738281 7.707031 -1.726562 7.03125 -0.96875 C 6.351562 -0.21875 5.453125 0.15625 4.328125 0.15625 C 3.203125 0.15625 2.300781 -0.21875 1.625 -0.96875 C 0.957031 -1.71875 0.625 -2.726562 0.625 -4 C 0.625 -5.269531 0.957031 -6.28125 1.625 -7.03125 C 2.300781 -7.789062 3.203125 -8.171875 4.328125 -8.171875 Z M 4.328125 -8.171875 "/>
</symbol>
<symbol overflow="visible" id="glyph0-2">
<path style="stroke:none;" d="M 1.078125 -8.015625 L 2.171875 -8.015625 L 2.171875 -4.734375 L 6.109375 -4.734375 L 6.109375 -8.015625 L 7.1875 -8.015625 L 7.1875 0 L 6.109375 0 L 6.109375 -3.8125 L 2.171875 -3.8125 L 2.171875 0 L 1.078125 0 Z M 1.078125 -8.015625 "/>
</symbol>
</g>
</defs>
<g id="surface53381">
<rect x="0" y="0" width="300" height="300" style="fill:rgb(100%,100%,100%);fill-opacity:1;stroke:none;"/>
<path style=" stroke:none;fill-rule:nonzero;fill:rgb(0%,0%,0%);fill-opacity:1;" d="M 82.316406 173.320312 L 56.371094 179.644531 L 60.105469 188.140625 Z M 82.316406 173.320312 "/>
<path style="fill:none;stroke-width:1.2;stroke-linecap:butt;stroke-linejoin:miter;stroke:rgb(0%,0%,0%);stroke-opacity:1;stroke-miterlimit:10;" d="M 82.316406 173.320312 L 96.910156 195.195312 "/>
<path style="fill:none;stroke-width:1.2;stroke-linecap:butt;stroke-linejoin:miter;stroke:rgb(0%,0%,0%);stroke-opacity:1;stroke-miterlimit:10;" d="M 76.085938 147.773438 L 82.316406 173.320312 "/>
<path style="fill:none;stroke-width:1.2;stroke-linecap:butt;stroke-linejoin:miter;stroke:rgb(0%,0%,0%);stroke-opacity:1;stroke-miterlimit:10;" d="M 96.910156 195.195312 L 118.101562 210.761719 "/>
<path style="fill:none;stroke-width:1.2;stroke-linecap:butt;stroke-linejoin:miter;stroke:rgb(0%,0%,0%);stroke-opacity:1;stroke-miterlimit:10;" d="M 102.691406 191.765625 L 119.644531 204.21875 "/>
<path style="fill:none;stroke-width:1.2;stroke-linecap:butt;stroke-linejoin:miter;stroke:rgb(0%,0%,0%);stroke-opacity:1;stroke-miterlimit:10;" d="M 118.101562 210.761719 L 143.34375 218.140625 "/>
<path style="fill:none;stroke-width:1.2;stroke-linecap:butt;stroke-linejoin:miter;stroke:rgb(0%,0%,0%);stroke-opacity:1;stroke-miterlimit:10;" d="M 143.34375 218.140625 L 169.585938 216.4375 "/>
<path style="fill:none;stroke-width:1.2;stroke-linecap:butt;stroke-linejoin:miter;stroke:rgb(0%,0%,0%);stroke-opacity:1;stroke-miterlimit:10;" d="M 166.578125 217.171875 L 169.695312 229.945312 "/>
<path style="fill:none;stroke-width:1.2;stroke-linecap:butt;stroke-linejoin:miter;stroke:rgb(100%,0%,0%);stroke-opacity:1;stroke-miterlimit:10;" d="M 169.695312 229.945312 L 172.808594 242.71875 "/>
<path style="fill:none;stroke-width:1.2;stroke-linecap:butt;stroke-linejoin:miter;stroke:rgb(0%,0%,0%);stroke-opacity:1;stroke-miterlimit:10;" d="M 172.589844 215.707031 L 175.707031 228.480469 "/>
<path style="fill:none;stroke-width:1.2;stroke-linecap:butt;stroke-linejoin:miter;stroke:rgb(100%,0%,0%);stroke-opacity:1;stroke-miterlimit:10;" d="M 175.707031 228.480469 L 178.820312 241.253906 "/>
<path style="fill:none;stroke-width:1.2;stroke-linecap:butt;stroke-linejoin:miter;stroke:rgb(0%,0%,0%);stroke-opacity:1;stroke-miterlimit:10;" d="M 169.585938 216.4375 L 181.625 211.152344 "/>
<path style="fill:none;stroke-width:1.2;stroke-linecap:butt;stroke-linejoin:miter;stroke:rgb(100%,0%,0%);stroke-opacity:1;stroke-miterlimit:10;" d="M 181.625 211.152344 L 193.664062 205.867188 "/>
<path style=" stroke:none;fill-rule:nonzero;fill:rgb(100%,100%,100%);fill-opacity:1;" d="M 171.816406 235.484375 L 180.816406 235.484375 L 180.816406 248.484375 L 171.816406 248.484375 Z M 171.816406 235.484375 "/>
<g style="fill:rgb(100%,0%,0%);fill-opacity:1;">
  <use xlink:href="#glyph0-1" x="171.816406" y="245.385742"/>
</g>
<path style="fill:none;stroke-width:1.2;stroke-linecap:butt;stroke-linejoin:miter;stroke:rgb(100%,0%,0%);stroke-opacity:1;stroke-miterlimit:10;" d="M 193.664062 205.867188 L 203.167969 196.78125 "/>
<path style="fill:none;stroke-width:1.2;stroke-linecap:butt;stroke-linejoin:miter;stroke:rgb(0%,0%,0%);stroke-opacity:1;stroke-miterlimit:10;" d="M 203.167969 196.78125 L 212.671875 187.695312 "/>
<path style=" stroke:none;fill-rule:nonzero;fill:rgb(100%,100%,100%);fill-opacity:1;" d="M 189.664062 199.367188 L 198.664062 199.367188 L 198.664062 212.367188 L 189.664062 212.367188 Z M 189.664062 199.367188 "/>
<g style="fill:rgb(100%,0%,0%);fill-opacity:1;">
  <use xlink:href="#glyph0-1" x="189.664062" y="209.268555"/>
</g>
<path style=" stroke:none;fill-rule:nonzero;fill:rgb(0%,0%,0%);fill-opacity:1;" d="M 223.914062 157.886719 L 208.328125 186.058594 L 217.011719 189.332031 Z M 223.914062 157.886719 "/>
<path style="fill:none;stroke-width:1.2;stroke-linecap:butt;stroke-linejoin:miter;stroke:rgb(0%,0%,0%);stroke-opacity:1;stroke-miterlimit:10;" d="M 223.914062 157.886719 L 250.15625 156.1875 "/>
<path style="fill:none;stroke-width:1.2;stroke-linecap:butt;stroke-linejoin:miter;stroke:rgb(100%,0%,0%);stroke-opacity:1;stroke-miterlimit:10;" d="M 209.324219 136.011719 L 216.621094 146.949219 "/>
<path style="fill:none;stroke-width:1.2;stroke-linecap:butt;stroke-linejoin:miter;stroke:rgb(0%,0%,0%);stroke-opacity:1;stroke-miterlimit:10;" d="M 216.621094 146.949219 L 223.914062 157.886719 "/>
<path style="fill:none;stroke-width:1.2;stroke-linecap:butt;stroke-linejoin:miter;stroke:rgb(0%,0%,0%);stroke-opacity:1;stroke-miterlimit:10;" d="M 250.15625 156.1875 L 261.804688 132.609375 "/>
<path style="fill:none;stroke-width:1;stroke-linecap:butt;stroke-linejoin:miter;stroke:rgb(0%,0%,0%);stroke-opacity:1;stroke-miterlimit:10;" d="M 250.15625 156.1875 L 250.15625 156.1875 M 251.363281 158.933594 L 252.230469 158.355469 M 252.570312 161.679688 L 254.304688 160.523438 M 253.773438 164.425781 L 256.375 162.691406 M 254.980469 167.175781 L 258.449219 164.859375 M 256.1875 169.921875 L 260.523438 167.027344 M 257.390625 172.667969 L 262.597656 169.195312 M 258.597656 175.414062 L 264.667969 171.363281 M 259.804688 178.164062 L 266.742188 173.53125 M 260.890625 180.636719 L 268.609375 175.488281 "/>
<path style="fill:none;stroke-width:1.2;stroke-linecap:butt;stroke-linejoin:miter;stroke:rgb(0%,0%,0%);stroke-opacity:1;stroke-miterlimit:10;" d="M 261.804688 132.609375 L 247.210938 110.734375 "/>
<path style="fill:none;stroke-width:1.2;stroke-linecap:butt;stroke-linejoin:miter;stroke:rgb(0%,0%,0%);stroke-opacity:1;stroke-miterlimit:10;" d="M 255.199219 133.855469 L 243.523438 116.355469 "/>
<path style="fill:none;stroke-width:1;stroke-linecap:butt;stroke-linejoin:miter;stroke:rgb(0%,0%,0%);stroke-opacity:1;stroke-miterlimit:10;" d="M 220.972656 112.433594 L 220.972656 112.433594 M 223.953125 112.765625 L 223.886719 111.722656 M 226.933594 113.09375 L 226.800781 111.011719 M 229.917969 113.421875 L 229.714844 110.300781 M 232.898438 113.75 L 232.628906 109.589844 M 235.878906 114.082031 L 235.542969 108.878906 M 238.863281 114.410156 L 238.457031 108.167969 M 241.84375 114.738281 L 241.371094 107.457031 M 244.824219 115.070312 L 244.285156 106.746094 M 247.511719 115.367188 L 246.914062 106.105469 "/>
<path style="fill:none;stroke-width:1.2;stroke-linecap:butt;stroke-linejoin:miter;stroke:rgb(0%,0%,0%);stroke-opacity:1;stroke-miterlimit:10;" d="M 220.972656 112.433594 L 215.148438 124.222656 "/>
<path style="fill:none;stroke-width:1.2;stroke-linecap:butt;stroke-linejoin:miter;stroke:rgb(100%,0%,0%);stroke-opacity:1;stroke-miterlimit:10;" d="M 215.148438 124.222656 L 209.324219 136.011719 "/>
<path style="fill:none;stroke-width:1.2;stroke-linecap:butt;stroke-linejoin:miter;stroke:rgb(0%,0%,0%);stroke-opacity:1;stroke-miterlimit:10;" d="M 220.972656 112.433594 L 206.378906 90.558594 "/>
<path style=" stroke:none;fill-rule:nonzero;fill:rgb(100%,100%,100%);fill-opacity:1;" d="M 205.324219 129.511719 L 214.324219 129.511719 L 214.324219 142.511719 L 205.324219 142.511719 Z M 205.324219 129.511719 "/>
<g style="fill:rgb(100%,0%,0%);fill-opacity:1;">
  <use xlink:href="#glyph0-1" x="205.324219" y="139.413086"/>
</g>
<path style="fill:none;stroke-width:1.2;stroke-linecap:butt;stroke-linejoin:miter;stroke:rgb(0%,0%,0%);stroke-opacity:1;stroke-miterlimit:10;" d="M 206.378906 90.558594 L 185.183594 74.996094 "/>
<path style=" stroke:none;fill-rule:nonzero;fill:rgb(0%,0%,0%);fill-opacity:1;" d="M 206.378906 90.558594 L 228.59375 75.742188 L 222.179688 69.035156 Z M 206.378906 90.558594 "/>
<path style="fill:none;stroke-width:1.2;stroke-linecap:butt;stroke-linejoin:miter;stroke:rgb(0%,0%,0%);stroke-opacity:1;stroke-miterlimit:10;" d="M 185.183594 74.996094 L 159.941406 67.617188 "/>
<path style="fill:none;stroke-width:1.2;stroke-linecap:butt;stroke-linejoin:miter;stroke:rgb(0%,0%,0%);stroke-opacity:1;stroke-miterlimit:10;" d="M 180.921875 80.195312 L 160.730469 74.292969 "/>
<path style="fill:none;stroke-width:1.2;stroke-linecap:butt;stroke-linejoin:miter;stroke:rgb(0%,0%,0%);stroke-opacity:1;stroke-miterlimit:10;" d="M 159.941406 67.617188 L 133.703125 69.316406 "/>
<path style="fill:none;stroke-width:1.2;stroke-linecap:butt;stroke-linejoin:miter;stroke:rgb(0%,0%,0%);stroke-opacity:1;stroke-miterlimit:10;" d="M 133.703125 69.316406 L 109.625 79.890625 "/>
<path style="fill:none;stroke-width:1.2;stroke-linecap:butt;stroke-linejoin:miter;stroke:rgb(0%,0%,0%);stroke-opacity:1;stroke-miterlimit:10;" d="M 112.199219 78.171875 L 104.902344 67.234375 "/>
<path style="fill:none;stroke-width:1.2;stroke-linecap:butt;stroke-linejoin:miter;stroke:rgb(100%,0%,0%);stroke-opacity:1;stroke-miterlimit:10;" d="M 104.902344 67.234375 L 97.605469 56.296875 "/>
<path style="fill:none;stroke-width:1.2;stroke-linecap:butt;stroke-linejoin:miter;stroke:rgb(0%,0%,0%);stroke-opacity:1;stroke-miterlimit:10;" d="M 107.050781 81.605469 L 99.753906 70.667969 "/>
<path style="fill:none;stroke-width:1.2;stroke-linecap:butt;stroke-linejoin:miter;stroke:rgb(100%,0%,0%);stroke-opacity:1;stroke-miterlimit:10;" d="M 99.753906 70.667969 L 92.457031 59.730469 "/>
<path style="fill:none;stroke-width:1.2;stroke-linecap:butt;stroke-linejoin:miter;stroke:rgb(0%,0%,0%);stroke-opacity:1;stroke-miterlimit:10;" d="M 109.625 79.890625 L 100.121094 88.972656 "/>
<path style="fill:none;stroke-width:1.2;stroke-linecap:butt;stroke-linejoin:miter;stroke:rgb(100%,0%,0%);stroke-opacity:1;stroke-miterlimit:10;" d="M 100.121094 88.972656 L 90.613281 98.058594 "/>
<path style=" stroke:none;fill-rule:nonzero;fill:rgb(100%,100%,100%);fill-opacity:1;" d="M 86.03125 51.515625 L 95.03125 51.515625 L 95.03125 64.515625 L 86.03125 64.515625 Z M 86.03125 51.515625 "/>
<g style="fill:rgb(100%,0%,0%);fill-opacity:1;">
  <use xlink:href="#glyph0-1" x="86.03125" y="61.416992"/>
</g>
<path style="fill:none;stroke-width:1.2;stroke-linecap:butt;stroke-linejoin:miter;stroke:rgb(100%,0%,0%);stroke-opacity:1;stroke-miterlimit:10;" d="M 90.613281 98.058594 L 84.789062 109.847656 "/>
<path style="fill:none;stroke-width:1.2;stroke-linecap:butt;stroke-linejoin:miter;stroke:rgb(0%,0%,0%);stroke-opacity:1;stroke-miterlimit:10;" d="M 84.789062 109.847656 L 78.964844 121.636719 "/>
<path style=" stroke:none;fill-rule:nonzero;fill:rgb(100%,100%,100%);fill-opacity:1;" d="M 86.613281 91.558594 L 95.613281 91.558594 L 95.613281 104.558594 L 86.613281 104.558594 Z M 86.613281 91.558594 "/>
<g style="fill:rgb(100%,0%,0%);fill-opacity:1;">
  <use xlink:href="#glyph0-1" x="86.613281" y="101.459961"/>
</g>
<path style="fill:none;stroke-width:1.2;stroke-linecap:butt;stroke-linejoin:miter;stroke:rgb(0%,0%,0%);stroke-opacity:1;stroke-miterlimit:10;" d="M 78.964844 121.636719 L 76.085938 147.773438 "/>
<path style="fill:none;stroke-width:1;stroke-linecap:butt;stroke-linejoin:miter;stroke:rgb(0%,0%,0%);stroke-opacity:1;stroke-miterlimit:10;" d="M 76.085938 147.773438 L 76.085938 147.773438 M 73.101562 147.445312 L 73.167969 148.484375 M 70.121094 147.113281 L 70.253906 149.195312 M 67.140625 146.785156 L 67.339844 149.90625 M 64.15625 146.457031 L 64.425781 150.617188 M 61.175781 146.125 L 61.511719 151.328125 M 58.191406 145.796875 L 58.597656 152.039062 M 55.210938 145.46875 L 55.683594 152.753906 M 52.230469 145.140625 L 52.769531 153.464844 M 49.542969 144.84375 L 50.144531 154.105469 "/>
<path style="fill:none;stroke-width:1.2;stroke-linecap:butt;stroke-linejoin:miter;stroke:rgb(100%,0%,0%);stroke-opacity:1;stroke-miterlimit:10;" d="M 49.84375 149.472656 L 42.546875 138.535156 "/>
<path style="fill:none;stroke-width:1.2;stroke-linecap:butt;stroke-linejoin:miter;stroke:rgb(0%,0%,0%);stroke-opacity:1;stroke-miterlimit:10;" d="M 42.546875 138.535156 L 35.25 127.597656 "/>
<path style=" stroke:none;fill-rule:nonzero;fill:rgb(100%,100%,100%);fill-opacity:1;" d="M 45.84375 142.972656 L 54.84375 142.972656 L 54.84375 155.972656 L 45.84375 155.972656 Z M 45.84375 142.972656 "/>
<g style="fill:rgb(100%,0%,0%);fill-opacity:1;">
  <use xlink:href="#glyph0-1" x="45.84375" y="152.874023"/>
</g>
<path style=" stroke:none;fill-rule:nonzero;fill:rgb(100%,100%,100%);fill-opacity:1;" d="M 256.75 171.5625 L 273.75 171.5625 L 273.75 184.5625 L 256.75 184.5625 Z M 256.75 171.5625 "/>
<g style="fill:rgb(100%,0%,0%);fill-opacity:1;">
  <use xlink:href="#glyph0-1" x="256.75" y="181.463867"/>
  <use xlink:href="#glyph0-2" x="265.150391" y="181.463867"/>
</g>
</g>
</svg>

<svg xmlns="http://www.w3.org/2000/svg" xmlns:xlink="http://www.w3.org/1999/xlink" width="300pt" height="300pt" viewBox="0 0 300 300"><defs><symbol overflow="visible"><path d="M.547 1.938V-7.75h5.5v9.688zm.625-.61h4.266v-8.47H1.171zm0 0"/></symbol><symbol overflow="visible" id="a"><path d="M4.328-7.28c-.78 0-1.406.296-1.875.89-.46.585-.687 1.382-.687 2.39 0 1.012.226 1.813.687 2.406.47.586 1.094.875 1.875.875.79 0 1.414-.288 1.875-.874.457-.593.688-1.394.688-2.406 0-1.008-.23-1.805-.687-2.39-.46-.594-1.086-.89-1.875-.89zm0-.892c1.125 0 2.024.383 2.703 1.14C7.708-6.28 8.048-5.27 8.048-4c0 1.262-.34 2.273-1.016 3.03C6.353-.22 5.454.157 4.33.157S2.3-.22 1.625-.97c-.668-.75-1-1.757-1-3.03 0-1.27.332-2.28 1-3.03.676-.76 1.578-1.142 2.703-1.142zm0 0"/></symbol><symbol overflow="visible" id="b"><path d="M1.078-8.016h1.094v3.282H6.11v-3.282h1.077V0H6.11v-3.813H2.17V0H1.078zm0 0"/></symbol></defs><g><path fill="#fff" d="M0 0h300v300H0z"/><path d="M82.316 173.32l-25.945 6.325 3.735 8.496zm0 0"/><path d="M82.316 173.32l14.594 21.875M76.086 147.773l6.23 25.547M96.91 195.195l21.192 15.567M102.69 191.766l16.955 12.453M118.102 210.762l25.242 7.38M143.344 218.14l26.242-1.702M166.578 217.172l3.117 12.773" stroke-width="1.2" stroke="#000" stroke-miterlimit="10" fill="none"/><path d="M169.695 229.945l3.114 12.774" stroke-width="1.2" stroke="#f00" stroke-miterlimit="10" fill="none"/><path d="M172.59 215.707l3.117 12.773" stroke-width="1.2" stroke="#000" stroke-miterlimit="10" fill="none"/><path d="M175.707 228.48l3.113 12.774" stroke-width="1.2" stroke="#f00" stroke-miterlimit="10" fill="none"/><path d="M169.586 216.438l12.04-5.286" stroke-width="1.2" stroke="#000" stroke-miterlimit="10" fill="none"/><path d="M181.625 211.152l12.04-5.285" stroke-width="1.2" stroke="#f00" stroke-miterlimit="10" fill="none"/><path d="M171.816 235.484h9v13h-9zm0 0" fill="#fff"/><use xlink:href="#a" x="171.816" y="245.386" fill="#f00"/><path d="M193.664 205.867l9.504-9.086" stroke-width="1.2" stroke="#f00" stroke-miterlimit="10" fill="none"/><path d="M203.168 196.78l9.504-9.085" stroke-width="1.2" stroke="#000" stroke-miterlimit="10" fill="none"/><path d="M189.664 199.367h9v13h-9zm0 0" fill="#fff"/><use xlink:href="#a" x="189.664" y="209.269" fill="#f00"/><path d="M223.914 157.887l-15.586 28.172 8.684 3.272zm0 0"/><path d="M223.914 157.887l26.242-1.7" stroke-width="1.2" stroke="#000" stroke-miterlimit="10" fill="none"/><path d="M209.324 136.012l7.297 10.937" stroke-width="1.2" stroke="#f00" stroke-miterlimit="10" fill="none"/><path d="M216.62 146.95l7.294 10.937M250.156 156.188l11.65-23.58" stroke-width="1.2" stroke="#000" stroke-miterlimit="10" fill="none"/><path d="M250.156 156.188m1.207 2.746l.867-.58m.34 3.326l1.735-1.157m-.532 3.903l2.602-1.735m-1.395 4.486l3.47-2.317m-2.262 5.062l4.335-2.895m-3.132 5.64l5.208-3.472m-4 6.22l6.07-4.052m-4.863 6.8l6.937-4.632m-5.85 7.107l7.717-5.15" stroke="#000" stroke-miterlimit="10" fill="none"/><path d="M261.805 132.61l-14.594-21.876M255.2 133.855l-11.677-17.5" stroke-width="1.2" stroke="#000" stroke-miterlimit="10" fill="none"/><path d="M220.973 112.434m2.98.332l-.066-1.043m3.047 1.37l-.133-2.08m3.118 2.41l-.203-3.122m3.183 3.45l-.27-4.16m3.25 4.492l-.335-5.203m3.32 5.53l-.406-6.242m3.387 6.57l-.473-7.28m3.454 7.612l-.54-8.324m3.228 8.62l-.598-9.26" stroke="#000" stroke-miterlimit="10" fill="none"/><path d="M220.973 112.434l-5.825 11.79" stroke-width="1.2" stroke="#000" stroke-miterlimit="10" fill="none"/><path d="M215.148 124.223l-5.824 11.79" stroke-width="1.2" stroke="#f00" stroke-miterlimit="10" fill="none"/><path d="M220.973 112.434L206.38 90.56" stroke-width="1.2" stroke="#000" stroke-miterlimit="10" fill="none"/><path d="M205.324 129.512h9v13h-9zm0 0" fill="#fff"/><use xlink:href="#a" x="205.324" y="139.413" fill="#f00"/><path d="M206.38 90.56l-21.196-15.564" stroke-width="1.2" stroke="#000" stroke-miterlimit="10" fill="none"/><path d="M206.38 90.56l22.214-14.818-6.414-6.707zm0 0"/><path d="M185.184 74.996l-25.243-7.38M180.922 80.195l-20.192-5.902M159.94 67.617l-26.237 1.7M133.703 69.316L109.625 79.89M112.2 78.172L104.9 67.234" stroke-width="1.2" stroke="#000" stroke-miterlimit="10" fill="none"/><path d="M104.902 67.234l-7.297-10.937" stroke-width="1.2" stroke="#f00" stroke-miterlimit="10" fill="none"/><path d="M107.05 81.605l-7.296-10.937" stroke-width="1.2" stroke="#000" stroke-miterlimit="10" fill="none"/><path d="M99.754 70.668L92.457 59.73" stroke-width="1.2" stroke="#f00" stroke-miterlimit="10" fill="none"/><path d="M109.625 79.89l-9.504 9.083" stroke-width="1.2" stroke="#000" stroke-miterlimit="10" fill="none"/><path d="M100.12 88.973l-9.507 9.086" stroke-width="1.2" stroke="#f00" stroke-miterlimit="10" fill="none"/><path d="M86.03 51.516h9v13h-9zm0 0" fill="#fff"/><use xlink:href="#a" x="86.031" y="61.417" fill="#f00"/><path d="M90.613 98.06l-5.824 11.788" stroke-width="1.2" stroke="#f00" stroke-miterlimit="10" fill="none"/><path d="M84.79 109.848l-5.825 11.79" stroke-width="1.2" stroke="#000" stroke-miterlimit="10" fill="none"/><path d="M86.613 91.56h9v13h-9zm0 0" fill="#fff"/><use xlink:href="#a" x="86.613" y="101.46" fill="#f00"/><path d="M78.965 121.637l-2.88 26.136" stroke-width="1.2" stroke="#000" stroke-miterlimit="10" fill="none"/><path d="M76.086 147.773m-2.984-.328l.066 1.04m-3.047-1.372l.134 2.082m-3.113-2.41l.2 3.12m-3.184-3.448l.27 4.16m-3.25-4.492l.336 5.203m-3.32-5.53l.406 6.24m-3.387-6.57l.474 7.286m-3.454-7.613l.54 8.325m-3.227-8.62l.602 9.26" stroke="#000" stroke-miterlimit="10" fill="none"/><path d="M49.844 149.473l-7.297-10.938" stroke-width="1.2" stroke="#f00" stroke-miterlimit="10" fill="none"/><path d="M42.547 138.535l-7.297-10.937" stroke-width="1.2" stroke="#000" stroke-miterlimit="10" fill="none"/><path d="M45.844 142.973h9v13h-9zm0 0" fill="#fff"/><use xlink:href="#a" x="45.844" y="152.874" fill="#f00"/><path d="M256.75 171.563h17v13h-17zm0 0" fill="#fff"/><g fill="#f00"><use xlink:href="#a" x="256.75" y="181.464"/><use xlink:href="#b" x="265.15" y="181.464"/></g></g></svg>
